_inc/systems/logos/psp.svg

<?xml version="1.0" encoding="utf-8"?>
<svg version="1.2" viewBox="0 0 264 86" xmlns="http://www.w3.org/2000/svg">
  <g transform="matrix(0.44, 0, 0, 0.4391, 0, -0.000561)">
    <path id="path6905" d="M 109.269 170.297 C 114.912 170.297 118.296 169.148 118.296 163.784 C 118.296 159.812 115.836 157.688 110.193 157.688 L 102.396 157.688 L 102.396 170.297 L 109.269 170.297 Z M 99.42 186.866 L 99.42 155.132 L 111.015 155.132 C 119.22 155.132 121.377 159.236 121.377 163.997 C 121.377 171.086 115.014 172.85 109.167 172.85 L 102.396 172.85 L 102.396 186.866 L 99.42 186.866" style="fill-opacity: 1; fill: rgb(255, 255, 255);"/>
    <path id="path6907" d="M 125.376 186.866 L 127.941 186.866 L 127.941 155.132 L 125.376 155.132 L 125.376 186.866 Z" style="fill-opacity: 1; fill: rgb(255, 255, 255);"/>
    <path id="path6909" d="M 149.487 174.872 C 147.231 175.796 144.87 175.979 142.614 176.156 C 138.612 176.462 136.152 177.92 136.152 180.998 C 136.152 183.788 138.615 185.102 141.078 185.102 C 145.284 185.102 149.49 183.071 149.49 178.442 L 149.487 174.872 L 149.487 174.872 Z M 144.975 173.558 C 145.998 173.465 147.642 173.201 148.461 172.799 C 149.385 172.409 149.487 171.218 149.487 170.429 C 149.487 167.741 147.846 165.803 143.742 165.803 C 140.151 165.803 137.589 166.991 137.073 170.954 L 134.406 170.954 C 134.817 165.575 138.816 163.412 143.844 163.412 C 148.461 163.412 152.052 165.227 152.052 170.51 L 152.052 182.936 C 152.052 185.009 152.667 185.492 154.824 184.7 L 154.824 186.773 C 154.515 186.908 153.591 187.214 152.772 187.214 C 152.361 187.214 152.052 187.175 151.644 187.082 C 149.796 186.827 149.487 185.276 149.487 183.683 C 147.333 186.158 144.255 187.481 140.973 187.481 C 136.971 187.481 133.38 185.315 133.38 180.917 C 133.38 177.089 136.047 174.749 141.381 174.041 L 144.975 173.558" style="fill-opacity: 1; fill: rgb(255, 255, 255);"/>
    <path id="path6911" d="M 158.619 193.073 C 159.336 193.205 160.053 193.349 160.773 193.349 C 163.851 193.349 164.262 189.023 165.288 187.04 L 156.36 164.039 L 159.336 164.039 L 166.725 183.656 L 174.009 164.039 L 176.88 164.039 L 168.366 186.557 C 166.209 192.281 164.775 195.854 161.079 195.854 C 160.158 195.854 159.336 195.722 158.619 195.548 L 158.619 193.073" style="fill-opacity: 1; fill: rgb(255, 255, 255);"/>
    <path id="path6913" d="M 183.138 177.386 C 183.654 183.071 187.347 185.141 192.27 185.141 C 197.913 185.141 200.274 182.066 200.274 178.577 C 200.274 168.746 180.984 175.274 180.984 162.809 C 180.984 158.396 184.575 154.301 191.757 154.301 C 198.837 154.301 202.428 158.609 202.326 163.784 L 199.554 163.784 C 199.554 158.93 195.759 156.857 191.757 156.857 C 185.601 156.857 183.447 160.601 183.96 163.865 C 185.292 172.052 203.352 166.151 203.352 178.442 C 203.352 184.271 199.041 187.7 191.757 187.7 C 185.088 187.7 180.162 184.271 180.162 177.386 L 183.138 177.386" style="fill-opacity: 1; fill: rgb(255, 255, 255);"/>
    <path id="path6915" d="M 217.101 186.95 C 216.486 187.082 215.358 187.484 214.023 187.484 C 211.458 187.484 210.021 186.335 210.021 182.939 L 210.021 166.235 L 206.736 166.235 L 206.736 164.039 L 210.021 164.039 L 210.021 157.688 L 212.688 157.688 L 212.688 164.039 L 216.897 164.039 L 216.897 166.235 L 212.688 166.235 L 212.688 181.883 C 212.688 184.139 212.688 185.102 214.944 185.102 C 215.664 185.102 216.381 184.97 217.101 184.796 L 217.101 186.95" style="fill-opacity: 1; fill: rgb(255, 255, 255);"/>
    <path id="path6917" d="M 236.901 174.872 C 234.645 175.796 232.389 175.979 230.13 176.156 C 226.128 176.462 223.665 177.92 223.665 180.998 C 223.665 183.788 226.128 185.102 228.594 185.102 C 232.797 185.102 236.901 183.071 236.901 178.442 L 236.901 174.872 L 236.901 174.872 Z M 232.488 173.558 C 233.412 173.465 235.056 173.201 235.98 172.799 C 236.799 172.409 236.901 171.218 236.901 170.429 C 236.901 167.741 235.362 165.803 231.258 165.803 C 227.565 165.803 225.102 166.991 224.589 170.954 L 221.922 170.954 C 222.333 165.575 226.332 163.412 231.258 163.412 C 235.875 163.412 239.568 165.227 239.568 170.51 L 239.568 182.936 C 239.568 185.009 240.084 185.492 242.34 184.7 L 242.34 186.773 C 241.929 186.908 241.005 187.214 240.288 187.214 C 239.877 187.214 239.469 187.175 239.055 187.082 C 237.312 186.827 237.003 185.276 237.003 183.683 C 234.747 186.158 231.774 187.481 228.489 187.481 C 224.487 187.481 220.794 185.315 220.794 180.917 C 220.794 177.089 223.461 174.749 228.798 174.041 L 232.488 173.558" style="fill-opacity: 1; fill: rgb(255, 255, 255);"/>
    <path id="path6919" d="M 255.165 186.95 C 254.55 187.082 253.419 187.484 252.087 187.484 C 249.522 187.484 248.085 186.335 248.085 182.939 L 248.085 166.235 L 244.905 166.235 L 244.905 164.039 L 248.085 164.039 L 248.085 157.688 L 250.755 157.688 L 250.755 164.039 L 254.961 164.039 L 254.961 166.235 L 250.755 166.235 L 250.755 181.883 C 250.755 184.139 250.755 185.102 253.011 185.102 C 253.728 185.102 254.448 184.97 255.165 184.796 L 255.165 186.95" style="fill-opacity: 1; fill: rgb(255, 255, 255);"/>
    <path id="path6921" d="M 263.067 186.866 L 260.499 186.866 L 260.499 164.039 L 263.067 164.039 L 263.067 186.866 Z M 260.295 159.05 L 260.295 155.132 L 263.271 155.132 L 263.271 159.05 L 260.295 159.05" style="fill-opacity: 1; fill: rgb(255, 255, 255);"/>
    <path id="path6923" d="M 278.661 165.803 C 273.12 165.803 270.966 170.51 270.966 175.445 C 270.966 181.13 273.633 185.102 278.661 185.102 C 284.199 185.102 286.458 180.341 286.458 175.445 C 286.458 170.069 284.304 165.803 278.661 165.803 Z M 268.092 175.445 C 268.092 168.797 271.683 163.412 278.661 163.412 C 285.84 163.412 289.329 168.746 289.329 175.445 C 289.329 182.681 285.123 187.481 278.661 187.481 C 272.916 187.391 268.092 183.428 268.092 175.445" style="fill-opacity: 1; fill: rgb(255, 255, 255);"/>
    <path id="path6925" d="M 295.692 186.866 L 293.025 186.866 L 293.025 164.039 L 295.692 164.039 L 295.692 167.207 C 297.744 164.963 299.898 163.412 302.976 163.412 C 305.847 163.412 308.313 164.294 309.954 166.676 C 311.079 168.317 311.184 170.03 311.184 171.917 L 311.184 186.866 L 308.514 186.866 L 308.514 171.968 C 308.514 167.876 306.771 165.803 302.565 165.803 C 299.28 165.803 297.024 167.915 296.202 170.243 C 295.689 171.701 295.689 172.985 295.689 174.575 L 295.689 186.866" style="fill-opacity: 1; fill: rgb(255, 255, 255);"/>
    <path id="path6927" d="M 321.546 179.45 C 321.237 179.306 320.829 179.234 320.214 179.234 L 319.392 179.234 L 319.392 181.346 L 320.316 181.346 C 320.727 181.346 321.135 181.307 321.342 181.226 C 321.75 181.061 321.957 180.755 321.957 180.302 C 321.957 179.879 321.75 179.591 321.546 179.45 Z M 320.418 178.514 C 321.138 178.514 321.651 178.577 322.059 178.718 C 322.674 178.976 322.881 179.468 322.881 180.218 C 322.881 180.74 322.776 181.121 322.368 181.367 C 322.161 181.499 321.855 181.595 321.549 181.655 C 321.957 181.724 322.266 181.931 322.47 182.24 C 322.674 182.558 322.779 182.867 322.779 183.164 L 322.779 183.593 C 322.779 183.737 322.779 183.89 322.881 184.037 C 322.881 184.199 322.881 184.301 322.881 184.352 L 322.881 184.424 L 321.957 184.424 C 321.957 184.403 321.957 184.382 321.957 184.373 C 321.957 184.349 321.957 184.319 321.957 184.289 L 321.855 184.106 L 321.855 183.635 C 321.855 182.936 321.651 182.483 321.342 182.27 C 321.138 182.135 320.727 182.075 320.214 182.075 L 319.395 182.075 L 319.395 184.424 L 318.369 184.424 L 318.369 178.514 L 320.418 178.514 L 320.418 178.514 L 320.418 178.514 Z M 317.238 178.208 C 316.314 179.111 315.903 180.209 315.903 181.478 C 315.903 182.783 316.314 183.881 317.238 184.784 C 318.162 185.696 319.188 186.149 320.523 186.149 C 321.858 186.149 322.881 185.696 323.808 184.784 C 324.729 183.881 325.143 182.783 325.143 181.478 C 325.143 180.209 324.729 179.111 323.808 178.208 C 322.884 177.305 321.858 176.852 320.523 176.852 C 319.188 176.852 318.162 177.302 317.238 178.208 Z M 324.318 185.285 C 323.292 186.332 321.96 186.866 320.523 186.866 C 319.083 186.866 317.751 186.332 316.728 185.285 C 315.699 184.241 315.189 182.969 315.189 181.478 C 315.189 180.011 315.699 178.739 316.728 177.704 C 317.751 176.648 319.083 176.135 320.523 176.135 C 321.957 176.135 323.292 176.645 324.318 177.704 C 325.344 178.73 325.857 180.002 325.857 181.478 C 325.857 182.969 325.341 184.241 324.318 185.285" style="fill-opacity: 1; fill: rgb(255, 255, 255);"/>
    <path id="path6929" d="M 343.914 170.297 C 349.557 170.297 353.043 169.148 353.043 163.784 C 353.043 159.812 350.481 157.688 344.838 157.688 L 337.038 157.688 L 337.038 170.297 L 343.914 170.297 Z M 334.065 186.866 L 334.065 155.132 L 345.66 155.132 C 353.868 155.132 356.019 159.236 356.019 163.997 C 356.019 171.086 349.761 172.85 343.812 172.85 L 337.038 172.85 L 337.038 186.866 L 334.065 186.866" style="fill-opacity: 1; fill: rgb(255, 255, 255);"/>
    <path id="path6931" d="M 367.818 165.803 C 362.28 165.803 360.024 170.51 360.024 175.445 C 360.024 181.13 362.793 185.102 367.818 185.102 C 373.359 185.102 375.618 180.341 375.618 175.445 C 375.516 170.069 373.461 165.803 367.818 165.803 Z M 357.252 175.445 C 357.252 168.797 360.741 163.412 367.818 163.412 C 375.003 163.412 378.387 168.746 378.387 175.445 C 378.387 182.681 374.181 187.481 367.818 187.481 C 361.971 187.391 357.252 183.428 357.252 175.445" style="fill-opacity: 1; fill: rgb(255, 255, 255);"/>
    <path id="path6933" d="M 384.954 186.866 L 382.287 186.866 L 382.287 164.039 L 384.954 164.039 L 384.954 168.32 L 385.059 168.32 C 386.493 164.654 388.65 163.412 392.445 163.412 L 392.445 166.289 C 386.493 166.154 384.957 170.555 384.957 175.664 L 384.957 186.866" style="fill-opacity: 1; fill: rgb(255, 255, 255);"/>
    <path id="path6935" d="M 407.22 186.95 C 406.602 187.082 405.474 187.484 404.241 187.484 C 401.574 187.484 400.137 186.335 400.137 182.939 L 400.137 166.235 L 396.957 166.235 L 396.957 164.039 L 400.137 164.039 L 400.137 157.688 L 402.804 157.688 L 402.804 164.039 L 407.115 164.039 L 407.115 166.235 L 402.804 166.235 L 402.804 181.883 C 402.804 184.139 402.909 185.102 405.063 185.102 C 405.783 185.102 406.602 184.97 407.217 184.796 L 407.217 186.95" style="fill-opacity: 1; fill: rgb(255, 255, 255);"/>
    <path id="path6937" d="M 426.198 174.872 C 423.942 175.796 421.683 175.979 419.427 176.156 C 415.425 176.462 412.965 177.92 412.965 180.998 C 412.965 183.788 415.428 185.102 417.888 185.102 C 422.097 185.102 426.201 183.071 426.201 178.442 L 426.201 174.872 L 426.198 174.872 Z M 421.785 173.558 C 422.706 173.465 424.35 173.201 425.274 172.799 C 426.096 172.409 426.198 171.218 426.198 170.429 C 426.198 167.741 424.659 165.803 420.555 165.803 C 416.865 165.803 414.399 166.991 413.886 170.954 L 411.219 170.954 C 411.627 165.575 415.632 163.412 420.555 163.412 C 425.172 163.412 428.868 165.227 428.868 170.51 L 428.868 182.936 C 428.868 185.009 429.378 185.492 431.637 184.7 L 431.637 186.773 C 431.226 186.908 430.302 187.214 429.585 187.214 C 429.174 187.214 428.763 187.175 428.355 187.082 C 426.612 186.827 426.303 185.276 426.303 183.683 C 424.044 186.158 421.071 187.481 417.783 187.481 C 413.784 187.481 410.088 185.315 410.088 180.917 C 410.088 177.089 412.755 174.749 418.092 174.041 L 421.785 173.558" style="fill-opacity: 1; fill: rgb(255, 255, 255);"/>
    <path id="path6939" d="M 447.129 185.102 C 451.542 185.102 454.824 181.88 454.929 176.156 C 455.13 170.429 452.568 165.803 447.129 165.803 C 442.308 165.803 439.434 170.204 439.434 175.355 C 439.431 180.875 442.104 185.102 447.129 185.102 Z M 439.431 186.866 L 436.764 186.866 L 436.764 155.132 L 439.431 155.132 L 439.431 167.69 C 441.078 164.918 444.357 163.412 447.54 163.412 C 454.512 163.412 457.698 169.106 457.698 175.496 C 457.698 182.228 454.824 187.481 447.438 187.481 C 444.462 187.481 441.078 185.849 439.437 182.855 L 439.437 182.855 L 439.437 186.866" style="fill-opacity: 1; fill: rgb(255, 255, 255);"/>
    <path id="path6941" d="M 463.545 186.866 L 466.212 186.866 L 466.212 155.132 L 463.545 155.132 L 463.545 186.866 Z" style="fill-opacity: 1; fill: rgb(255, 255, 255);"/>
    <path id="path6943" d="M 489.195 173.858 C 489.195 169.415 486.732 165.803 482.013 165.803 C 477.294 165.803 474.831 169.547 474.318 173.858 L 489.195 173.858 Z M 474.318 176.072 C 474.318 180.998 476.985 185.102 482.013 185.102 C 485.397 185.102 488.169 183.203 488.886 179.861 L 491.862 179.861 C 490.527 184.166 487.86 187.484 482.013 187.484 C 474.726 187.484 471.546 182.282 471.546 175.544 C 471.546 168.884 475.446 163.412 482.013 163.412 C 488.271 163.412 492.066 167.876 492.066 176.072 L 474.318 176.072" style="fill-opacity: 1; fill: rgb(255, 255, 255);"/>
    <path id="path6945" d="M 0 0.002 L 186.936 0.002 L 186.936 55.436 L 7.386 55.436 L 7.386 103.484 L 0 103.484 L 0 48.047 L 179.55 48.047 L 179.55 7.385 L 0 7.385 L 0 0.002" style="fill-opacity: 1; fill: rgb(255, 255, 255);"/>
    <path id="path6947" d="M 420.453 55.436 L 420.453 103.484 L 413.067 103.484 L 413.067 48.047 L 592.614 48.047 L 592.614 7.385 L 413.067 7.385 L 413.067 -0.001 L 600 -0.001 L 600 55.436 L 420.453 55.436" style="fill-opacity: 1; fill: rgb(255, 255, 255);"/>
    <path id="path6949" d="M 282.252 0.002 L 282.252 96.095 L 186.936 96.095 L 186.936 103.484 L 290.049 103.484 L 290.049 7.385 L 385.365 7.385 L 385.365 -0.001 L 282.252 -0.001" style="fill-opacity: 1; fill: rgb(255, 255, 255);"/>
  </g>
</svg>

<svg xmlns="http://www.w3.org/2000/svg" viewBox="0 0 264 86"><path d="M109.27 170.3c5.64 0 9.03-1.15 9.03-6.52 0-3.97-2.46-6.1-8.1-6.1h-7.8v12.62zm-9.85 16.57v-31.74h11.6c8.2 0 10.36 4.1 10.36 8.87 0 7.09-6.37 8.85-12.21 8.85h-6.77v14.02zm25.96 0h2.56v-31.74h-2.56zm24.11-12c-2.26.93-4.62 1.1-6.88 1.29-4 .3-6.46 1.76-6.46 4.84 0 2.79 2.47 4.1 4.93 4.1 4.2 0 8.41-2.03 8.41-6.66zm-4.52-1.31c1.03-.1 2.67-.36 3.5-.76.91-.4 1.02-1.58 1.02-2.37 0-2.69-1.64-4.63-5.75-4.63-3.59 0-6.15 1.2-6.67 5.15h-2.66c.4-5.37 4.4-7.54 9.43-7.54 4.62 0 8.21 1.82 8.21 7.1v12.43c0 2.07.62 2.55 2.77 1.76v2.07c-.3.14-1.23.44-2.05.44-.4 0-.72-.03-1.13-.13-1.84-.25-2.15-1.8-2.15-3.4a11.2 11.2 0 0 1-8.52 3.8c-4 0-7.59-2.16-7.59-6.56 0-3.83 2.67-6.17 8-6.88zm13.65 19.51c.72.14 1.43.28 2.15.28 3.08 0 3.5-4.33 4.52-6.31l-8.93-23h2.98l7.38 19.62 7.29-19.62h2.87l-8.51 22.52c-2.16 5.72-3.6 9.3-7.3 9.3-.91 0-1.73-.14-2.45-.31zm24.52-15.68c.51 5.68 4.2 7.75 9.13 7.75 5.64 0 8-3.07 8-6.56 0-9.83-19.29-3.3-19.29-15.77 0-4.41 3.6-8.5 10.78-8.5 7.08 0 10.67 4.3 10.57 9.47h-2.78c0-4.85-3.8-6.92-7.8-6.92-6.15 0-8.3 3.74-7.79 7 1.33 8.2 19.4 2.3 19.4 14.58 0 5.83-4.32 9.26-11.6 9.26-6.67 0-11.6-3.43-11.6-10.31zm33.96 9.56c-.61.13-1.74.53-3.08.53-2.56 0-4-1.14-4-4.54v-16.7h-3.28v-2.2h3.28v-6.35h2.67v6.35h4.2v2.2h-4.2v15.64c0 2.26 0 3.22 2.25 3.22.72 0 1.44-.13 2.16-.3zm19.8-12.08c-2.25.93-4.51 1.1-6.77 1.29-4 .3-6.47 1.76-6.47 4.84 0 2.79 2.47 4.1 4.93 4.1 4.2 0 8.31-2.03 8.31-6.66zm-4.41-1.31c.92-.1 2.57-.36 3.49-.76.82-.4.92-1.58.92-2.37 0-2.69-1.54-4.63-5.64-4.63-3.7 0-6.16 1.2-6.67 5.15h-2.67c.41-5.37 4.41-7.54 9.34-7.54 4.62 0 8.3 1.82 8.3 7.1v12.43c0 2.07.52 2.55 2.78 1.76v2.07c-.41.14-1.34.44-2.05.44q-.62.01-1.23-.13c-1.75-.25-2.06-1.8-2.06-3.4a11.3 11.3 0 0 1-8.51 3.8c-4 0-7.7-2.16-7.7-6.56 0-3.83 2.67-6.17 8-6.88zm22.68 13.39c-.62.13-1.75.53-3.08.53-2.57 0-4-1.14-4-4.54v-16.7h-3.19v-2.2h3.19v-6.35h2.66v6.35h4.21v2.2h-4.2v15.64c0 2.26 0 3.22 2.25 3.22.72 0 1.44-.13 2.16-.3zm7.9-.08h-2.57v-22.83h2.57zm-2.77-27.82v-3.92h2.97v3.92zm18.36 6.75c-5.54 0-7.7 4.71-7.7 9.64 0 5.69 2.67 9.66 7.7 9.66 5.54 0 7.8-4.76 7.8-9.66 0-5.37-2.16-9.64-7.8-9.64m-10.57 9.64c0-6.64 3.6-12.03 10.57-12.03 7.18 0 10.67 5.34 10.67 12.03 0 7.24-4.2 12.04-10.67 12.04-5.74-.09-10.57-4.05-10.57-12.03m27.61 11.42h-2.68v-22.83h2.67v3.17c2.05-2.25 4.2-3.8 7.29-3.8 2.87 0 5.33.88 6.97 3.27 1.13 1.64 1.23 3.35 1.23 5.24v14.95h-2.67v-14.9c0-4.1-1.74-6.17-5.94-6.17a6.65 6.65 0 0 0-6.37 4.44c-.51 1.46-.51 2.75-.51 4.33v12.3m25.86-7.42c-.31-.14-.72-.22-1.34-.22h-.82v2.12h.93c.4 0 .81-.04 1.02-.12q.62-.25.62-.93c0-.42-.21-.7-.41-.85m-1.13-.94c.72 0 1.23.07 1.64.2.61.27.82.76.82 1.5 0 .53-.1.91-.51 1.16-.2.13-.51.22-.82.28q.61.12.92.59.3.48.3.92v.43c0 .15 0 .3.11.45v.38h-.92v-.13l-.1-.18v-.48q-.02-1.05-.52-1.36c-.2-.14-.61-.2-1.13-.2h-.81v2.35h-1.03v-5.9zm-3.18-.3c-.93.9-1.34 2-1.34 3.27 0 1.3.41 2.4 1.34 3.3a4.4 4.4 0 0 0 3.28 1.37c1.34 0 2.36-.45 3.29-1.37.92-.9 1.33-2 1.33-3.3 0-1.27-.41-2.37-1.33-3.27a4.4 4.4 0 0 0-3.29-1.36c-1.33 0-2.36.45-3.28 1.36m7.08 7.07a5.2 5.2 0 0 1-3.8 1.59 5.2 5.2 0 0 1-3.8-1.59 5.2 5.2 0 0 1-1.53-3.8q-.01-2.21 1.54-3.78a5.2 5.2 0 0 1 3.8-1.56c1.43 0 2.76.5 3.79 1.56a5.2 5.2 0 0 1 1.54 3.78q0 2.24-1.54 3.8m19.59-14.98c5.65 0 9.13-1.15 9.13-6.52 0-3.97-2.56-6.1-8.2-6.1h-7.8v12.62zm-9.85 16.57v-31.74h11.6c8.2 0 10.36 4.1 10.36 8.87 0 7.09-6.26 8.85-12.2 8.85h-6.78v14.02zm33.76-21.07c-5.54 0-7.8 4.71-7.8 9.64 0 5.69 2.77 9.66 7.8 9.66 5.54 0 7.8-4.76 7.8-9.66-.1-5.37-2.16-9.64-7.8-9.64m-10.57 9.64c0-6.64 3.5-12.03 10.57-12.03 7.18 0 10.57 5.34 10.57 12.03 0 7.24-4.2 12.04-10.57 12.04-5.85-.09-10.57-4.05-10.57-12.03m27.7 11.42h-2.66v-22.83h2.66v4.28h.1c1.44-3.67 3.6-4.9 7.4-4.9v2.87c-5.96-.14-7.5 4.27-7.5 9.37zm22.27.08c-.62.13-1.75.53-2.98.53-2.67 0-4.1-1.14-4.1-4.54v-16.7h-3.18v-2.2h3.18v-6.35h2.66v6.35h4.31v2.2h-4.3v15.64c0 2.26.1 3.22 2.25 3.22.72 0 1.54-.13 2.16-.3zm18.98-12.08c-2.26.93-4.52 1.1-6.77 1.29-4 .3-6.47 1.76-6.47 4.84 0 2.79 2.47 4.1 4.93 4.1 4.2 0 8.31-2.03 8.31-6.66zm-4.41-1.31c.92-.1 2.56-.36 3.48-.76.83-.4.93-1.58.93-2.37 0-2.69-1.54-4.63-5.64-4.63-3.7 0-6.16 1.2-6.67 5.15h-2.67c.4-5.37 4.41-7.54 9.33-7.54 4.62 0 8.32 1.82 8.32 7.1v12.43c0 2.07.5 2.55 2.77 1.76v2.07c-.41.14-1.34.44-2.06.44q-.61.01-1.22-.13c-1.75-.25-2.06-1.8-2.06-3.4a11.3 11.3 0 0 1-8.52 3.8c-4 0-7.7-2.16-7.7-6.56 0-3.83 2.68-6.17 8.01-6.88zm25.34 11.54c4.41 0 7.7-3.22 7.8-8.94.2-5.73-2.36-10.36-7.8-10.36-4.82 0-7.7 4.4-7.7 9.55 0 5.53 2.67 9.75 7.7 9.75m-7.7 1.77h-2.67v-31.74h2.67v12.56c1.65-2.77 4.93-4.28 8.11-4.28 6.97 0 10.16 5.7 10.16 12.09 0 6.73-2.88 11.98-10.26 11.98a9.3 9.3 0 0 1-8-4.62zm24.12 0h2.66v-31.74h-2.66zm25.65-13.01c0-4.45-2.47-8.06-7.19-8.06s-7.18 3.75-7.7 8.06zm-14.88 2.21c0 4.93 2.67 9.03 7.7 9.03 3.38 0 6.15-1.9 6.87-5.24h2.97c-1.33 4.3-4 7.62-9.85 7.62-7.28 0-10.46-5.2-10.46-11.94 0-6.66 3.9-12.13 10.46-12.13 6.26 0 10.06 4.47 10.06 12.66zM0 0h186.94v55.44H7.39v48.04H0V48.05h179.55V7.39H0zm420.45 55.44v48.04h-7.38V48.05H592.6V7.39H413.07v-7.4H600v55.45zM282.25 0v96.1h-95.31v7.38h103.1V7.38h95.32V0z" style="fill-opacity:1;fill:#fff" transform="scale(.44 .4391)"/></svg>
